src/lib/packages/icons/src/assets/filled/mug-hot.svg

<svg width="24" height="24" viewBox="0 0 24 24" fill="none" xmlns="http://www.w3.org/2000/svg">
<path d="M20.75 13.4999C20.75 11.1599 18.84 9.24994 16.5 9.24994H4.5C3.81 9.24994 3.25 9.80994 3.25 10.4999V17.9999C3.25 20.4199 4.58 21.7499 7 21.7499H13C15.42 21.7499 16.75 20.4199 16.75 17.9999V17.7199C18.98 17.5899 20.75 15.7499 20.75 13.4999ZM16.75 16.2199V10.7699C18.15 10.8999 19.25 12.0599 19.25 13.4899C19.25 14.9199 18.15 16.0899 16.75 16.2099V16.2199ZM11.82 5.36994C11.07 4.60994 11.07 3.36994 11.82 2.61994L11.97 2.46994C12.26 2.17994 12.74 2.17994 13.03 2.46994C13.32 2.75994 13.33 3.23994 13.03 3.52994L12.88 3.67993C12.7 3.85993 12.7 4.13995 12.88 4.31995L13.18 4.61994C13.93 5.37994 13.93 6.61994 13.18 7.36994L13.03 7.51994C12.88 7.66994 12.69 7.73995 12.5 7.73995C12.31 7.73995 12.12 7.66994 11.97 7.51994C11.68 7.22994 11.67 6.74995 11.97 6.45995L12.12 6.30994C12.3 6.12994 12.3 5.84994 12.12 5.66994L11.82 5.36994ZM6.82001 5.36994C6.07001 4.60994 6.07001 3.36994 6.82001 2.61994L6.97 2.46994C7.26 2.17994 7.74 2.17994 8.03 2.46994C8.32 2.75994 8.33 3.23994 8.03 3.52994L7.88 3.67993C7.70001 3.85993 7.70001 4.13995 7.88 4.31995L8.17999 4.61994C8.92999 5.37994 8.92999 6.61994 8.17999 7.36994L8.03 7.51994C7.88 7.66994 7.69 7.73995 7.5 7.73995C7.31 7.73995 7.12 7.66994 6.97 7.51994C6.68 7.22994 6.67 6.74995 6.97 6.45995L7.12 6.30994C7.29999 6.12994 7.29999 5.84994 7.12 5.66994L6.82001 5.36994Z" fill="currentColor"/>
</svg>

<svg xmlns="http://www.w3.org/2000/svg" width="24" height="24" fill="none"><path fill="currentColor" d="M20.75 13.5a4.26 4.26 0 0 0-4.25-4.25h-12c-.69 0-1.25.56-1.25 1.25V18c0 2.42 1.33 3.75 3.75 3.75h6c2.42 0 3.75-1.33 3.75-3.75v-.28c2.23-.13 4-1.97 4-4.22Zm-4 2.72v-5.45c1.4.13 2.5 1.29 2.5 2.72 0 1.43-1.1 2.6-2.5 2.72v.01ZM11.82 5.37c-.75-.76-.75-2 0-2.75l.15-.15c.29-.29.77-.29 1.06 0 .29.29.3.77 0 1.06l-.15.15c-.18.18-.18.46 0 .64l.3.3c.75.76.75 2 0 2.75l-.15.15c-.15.15-.34.22-.53.22s-.38-.07-.53-.22a.745.745 0 0 1 0-1.06l.15-.15c.18-.18.18-.46 0-.64l-.3-.3Zm-5 0c-.75-.76-.75-2 0-2.75l.15-.15c.29-.29.77-.29 1.06 0 .29.29.3.77 0 1.06l-.15.15c-.18.18-.18.46 0 .64l.3.3c.75.76.75 2 0 2.75l-.15.15c-.15.15-.34.22-.53.22s-.38-.07-.53-.22a.745.745 0 0 1 0-1.06l.15-.15c.18-.18.18-.46 0-.64l-.3-.3Z"/></svg>
